assets/images/chicons/ramps.svg

<svg width="149" height="240" viewBox="0 0 149 240" fill="none" xmlns="http://www.w3.org/2000/svg">
<g filter="url(#filter0_d)">
<path d="M71.2048 108.757C66.0799 92.4851 57.6118 77.7717 57.5725 80.131C57.5331 82.4903 64.784 96.04 68.776 108.718C72.7681 121.396 75.1867 147.089 75.2865 154.9C75.3863 162.71 75.4975 171.415 74.8095 176.144C74.1215 180.872 69.8829 195.357 69.9733 202.435C70.0638 209.513 76.887 213.873 82.3699 213.803C87.8528 213.733 94.1366 211.293 94.0462 204.215C93.9558 197.137 91.0166 190.095 87.4278 180.46C84.8244 173.47 79.9656 150.069 79.0437 145.334C78.1217 140.599 76.3296 125.03 71.2048 108.757Z" fill="#828A96"/>
<g filter="url(#filter1_d)">
<path d="M118.207 55.1575C118.43 44.8467 113.934 31.6401 112.566 18.344L84.3584 132.298C85.281 128.572 93.6946 111.021 103.542 95.5829C111.155 83.6462 117.9 69.3639 118.207 55.1575Z" fill="#00714D"/>
<path d="M118.207 55.1575C118.43 44.8467 113.934 31.6401 112.566 18.344L84.3584 132.298C85.281 128.572 93.6946 111.021 103.542 95.5829C111.155 83.6462 117.9 69.3639 118.207 55.1575Z" fill="#008561"/>
</g>
<g filter="url(#filter2_d)">
<path d="M89.1505 47.9647C93.9613 38.7895 104.759 29.3685 112.567 18.3438L84.3588 132.298C85.2813 128.571 85.6809 109.037 83.6605 90.6614C82.0984 76.4533 82.5223 60.6064 89.1505 47.9647Z" fill="#008561"/>
<path d="M89.1505 47.9647C93.9613 38.7895 104.759 29.3685 112.567 18.3438L84.3588 132.298C85.2813 128.571 85.6809 109.037 83.6605 90.6614C82.0984 76.4533 82.5223 60.6064 89.1505 47.9647Z" fill="#00714D"/>
</g>
<g filter="url(#filter3_d)">
<path d="M40.4624 65.4927C40.5161 60.466 40.6169 51.0282 45.2258 26.5655L78.3561 139.07C77.2726 135.39 62.3952 121.63 52.0908 104.886C39.4764 84.3894 40.3776 73.4428 40.4624 65.4927Z" fill="#00714D"/>
</g>
<path d="M72.3729 54.3767C66.7789 45.5446 54.2845 36.9979 45.226 26.5661L78.3563 139.07C77.2727 135.391 76.7054 115.709 78.9332 96.9825C80.6557 82.5026 80.0805 66.5456 72.3729 54.3767Z" fill="#008561"/>
<g filter="url(#filter4_d)">
<path d="M95.5322 81.297C98.249 72.5388 100.259 67.4585 100.457 70.3014C100.654 73.1442 97.9376 81.9025 95.2211 90.6607C93.9026 94.9115 91.8264 101.106 90.4739 107.188C89.0398 113.638 88.3546 119.96 87.8984 123.673C87.4645 127.204 87.0774 135.187 86.7843 143.248C86.4786 151.658 86.6248 174.228 86.5776 177.842C86.5776 177.842 78.874 155.204 79.8826 149.421C80.4365 146.245 84.3099 122.119 88.1145 107.157C91.2387 94.8715 94.3072 85.2459 95.5322 81.297Z" fill="url(#paint0_linear)"/>
<path d="M86.088 174.755C86.0882 173.653 86.087 172.34 86.0857 170.879C86.0781 162.491 86.0661 149.239 86.2847 143.229C86.5775 135.176 86.9651 127.169 87.4021 123.612C87.4496 123.226 87.4996 122.811 87.5527 122.37C88.0089 118.582 88.6954 112.883 89.9858 107.08C91.1101 102.024 92.7328 96.8888 94.0036 92.8677C94.268 92.0308 94.5172 91.2422 94.7435 90.5126C96.1026 86.131 97.458 81.7608 98.4493 78.1311C98.9449 76.3162 99.3474 74.694 99.6134 73.3529C99.8646 72.0869 99.9859 71.1099 99.9644 70.466C99.9643 70.466 99.9643 70.4661 99.9643 70.4662C99.8009 70.7579 99.6115 71.1523 99.3982 71.6468C98.5431 73.6293 97.3681 77.0661 96.0097 81.4451C95.9035 81.7877 95.7834 82.1728 95.6506 82.5985C94.2523 87.0828 91.449 96.0733 88.5991 107.281C85.2376 120.5 81.821 140.893 80.6936 147.621C80.5471 148.496 80.4392 149.139 80.3752 149.507C80.2608 150.163 80.2656 151.096 80.3784 152.254C80.4904 153.404 80.7054 154.746 80.9937 156.204C81.5704 159.121 82.4348 162.479 83.3331 165.664C84.231 168.848 85.1606 171.853 85.866 174.063C85.9427 174.303 86.0168 174.534 86.088 174.755ZM100.31 69.9695C100.31 69.9694 100.309 69.9703 100.306 69.9726C100.309 69.9707 100.31 69.9696 100.31 69.9695Z" stroke="black" stroke-opacity="0.2" stroke-linecap="round"/>
</g>
<g filter="url(#filter5_d)">
<path d="M70.9958 105.209C65.8709 88.9369 59.5522 72.2004 59.5128 74.5597C59.4735 76.919 64.9159 92.5314 68.908 105.209C72.9001 117.887 75.142 143.581 75.2418 151.391C75.3415 159.202 75.4528 167.907 74.7647 172.635C74.0767 177.363 69.8184 190.3 69.9286 198.926C70.0388 207.552 76.8422 210.365 82.3251 210.295C87.8081 210.225 94.0919 207.784 94.0014 200.706C93.911 193.628 90.9718 186.587 87.383 176.951C84.7797 169.962 79.9209 146.561 78.9989 141.825C78.0769 137.09 76.1206 121.482 70.9958 105.209Z" fill="url(#paint1_linear)"/>
<path d="M60.8838 78.4244C60.7523 77.9622 60.6339 77.5325 60.5297 77.1382C61.1598 78.6044 61.9644 80.6382 62.8792 83.0734C65.101 88.9876 67.9589 97.2312 70.5189 105.359C74.6255 118.399 76.6889 130.994 77.8241 137.923C78.1024 139.622 78.325 140.98 78.5081 141.921C78.9701 144.294 80.4163 151.333 82.0728 158.653C83.7259 165.959 85.5986 173.593 86.9144 177.126C87.2797 178.106 87.6376 179.059 87.986 179.986C91.0771 188.212 93.4215 194.45 93.5015 200.713C93.5444 204.074 92.0869 206.299 89.9751 207.713C87.837 209.145 85.0009 209.76 82.3188 209.795C79.6543 209.829 76.6987 209.16 74.4091 207.469C72.1405 205.794 70.4817 203.083 70.4285 198.92C70.3743 194.673 71.3977 189.335 72.5344 184.432C72.9491 182.643 73.3766 180.921 73.7701 179.336C73.9151 178.753 74.0555 178.187 74.1889 177.644C74.682 175.636 75.0834 173.917 75.2595 172.707C75.9532 167.94 75.8417 159.211 75.7424 151.435L75.7417 151.385C75.6915 147.455 75.104 139.06 74.031 130.066C72.9586 121.078 71.3959 111.446 69.3849 105.059C68.1915 101.269 66.8666 97.2112 65.5984 93.3268C64.7459 90.7155 63.9189 88.1826 63.1747 85.8623C62.2476 82.9718 61.4484 80.4095 60.8838 78.4244Z" stroke="black" stroke-opacity="0.2" stroke-linecap="round"/>
</g>
</g>
<defs>
<filter id="filter0_d" x="0" y="0" width="148.663" height="240" filterUnits="userSpaceOnUse" color-interpolation-filters="sRGB">
<feFlood flood-opacity="0" result="BackgroundImageFix"/>
<feColorMatrix in="SourceAlpha" type="matrix" values="0 0 0 0 0 0 0 0 0 0 0 0 0 0 0 0 0 0 127 0"/>
<feOffset dy="6"/>
<feGaussianBlur stdDeviation="10"/>
<feColorMatrix type="matrix" values="0 0 0 0 0 0 0 0 0 0 0 0 0 0 0 0 0 0 0.1 0"/>
<feBlend mode="normal" in2="BackgroundImageFix" result="effect1_dropShadow"/>
<feBlend mode="normal" in="SourceGraphic" in2="effect1_dropShadow" result="shape"/>
</filter>
<filter id="filter1_d" x="74.2214" y="14.344" width="64.4417" height="138.493" filterUnits="userSpaceOnUse" color-interpolation-filters="sRGB">
<feFlood flood-opacity="0" result="BackgroundImageFix"/>
<feColorMatrix in="SourceAlpha" type="matrix" values="0 0 0 0 0 0 0 0 0 0 0 0 0 0 0 0 0 0 127 0"/>
<feOffset dy="6"/>
<feGaussianBlur stdDeviation="5"/>
<feColorMatrix type="matrix" values="0 0 0 0 0 0 0 0 0 0 0 0 0 0 0 0 0 0 0.1 0"/>
<feBlend mode="normal" in2="BackgroundImageFix" result="effect1_dropShadow"/>
<feBlend mode="normal" in="SourceGraphic" in2="effect1_dropShadow" result="shape"/>
</filter>
<filter id="filter2_d" x="56.6736" y="10" width="65.8933" height="138.852" filterUnits="userSpaceOnUse" color-interpolation-filters="sRGB">
<feFlood flood-opacity="0" result="BackgroundImageFix"/>
<feColorMatrix in="SourceAlpha" type="matrix" values="0 0 0 0 0 0 0 0 0 0 0 0 0 0 0 0 0 0 127 0"/>
<feOffset dy="6"/>
<feGaussianBlur stdDeviation="5"/>
<feColorMatrix type="matrix" values="0 0 0 0 0 0 0 0 0 0 0 0 0 0 0 0 0 0 0.1 0"/>
<feBlend mode="normal" in2="BackgroundImageFix" result="effect1_dropShadow"/>
<feBlend mode="normal" in="SourceGraphic" in2="effect1_dropShadow" result="shape"/>
</filter>
<filter id="filter3_d" x="10" y="22.5656" width="78.5169" height="140.479" filterUnits="userSpaceOnUse" color-interpolation-filters="sRGB">
<feFlood flood-opacity="0" result="BackgroundImageFix"/>
<feColorMatrix in="SourceAlpha" type="matrix" values="0 0 0 0 0 0 0 0 0 0 0 0 0 0 0 0 0 0 127 0"/>
<feOffset dy="6"/>
<feGaussianBlur stdDeviation="5"/>
<feColorMatrix type="matrix" values="0 0 0 0 0 0 0 0 0 0 0 0 0 0 0 0 0 0 0.1 0"/>
<feBlend mode="normal" in2="BackgroundImageFix" result="effect1_dropShadow"/>
<feBlend mode="normal" in="SourceGraphic" in2="effect1_dropShadow" result="shape"/>
</filter>
<filter id="filter4_d" x="64.2444" y="65.4927" width="53.5822" height="128.691" filterUnits="userSpaceOnUse" color-interpolation-filters="sRGB">
<feFlood flood-opacity="0" result="BackgroundImageFix"/>
<feColorMatrix in="SourceAlpha" type="matrix" values="0 0 0 0 0 0 0 0 0 0 0 0 0 0 0 0 0 0 127 0"/>
<feOffset dy="6"/>
<feGaussianBlur stdDeviation="5"/>
<feColorMatrix type="matrix" values="0 0 0 0 0 0 0 0 0 0 0 0 0 0 0 0 0 0 0.1 0"/>
<feBlend mode="normal" in2="BackgroundImageFix" result="effect1_dropShadow"/>
<feBlend mode="normal" in="SourceGraphic" in2="effect1_dropShadow" result="shape"/>
</filter>
<filter id="filter5_d" x="47.2537" y="70.335" width="58.8526" height="156.159" filterUnits="userSpaceOnUse" color-interpolation-filters="sRGB">
<feFlood flood-opacity="0" result="BackgroundImageFix"/>
<feColorMatrix in="SourceAlpha" type="matrix" values="0 0 0 0 0 0 0 0 0 0 0 0 0 0 0 0 0 0 127 0"/>
<feOffset dy="6"/>
<feGaussianBlur stdDeviation="5"/>
<feColorMatrix type="matrix" values="0 0 0 0 0 0 0 0 0 0 0 0 0 0 0 0 0 0 0.1 0"/>
<feBlend mode="normal" in2="BackgroundImageFix" result="effect1_dropShadow"/>
<feBlend mode="normal" in="SourceGraphic" in2="effect1_dropShadow" result="shape"/>
</filter>
<linearGradient id="paint0_linear" x1="99.1287" y1="77.7165" x2="82.611" y2="202.975" gradientUnits="userSpaceOnUse">
<stop stop-color="#008561"/>
<stop offset="0.838442" stop-color="#A60063"/>
<stop offset="0.838542" stop-color="white"/>
</linearGradient>
<linearGradient id="paint1_linear" x1="59.6967" y1="82.6709" x2="136.096" y2="157.142" gradientUnits="userSpaceOnUse">
<stop stop-color="#008561"/>
<stop offset="0.838442" stop-color="#A60063"/>
<stop offset="0.838542" stop-color="white"/>
</linearGradient>
</defs>
</svg>

<svg width="149" height="240" fill="none" xmlns="http://www.w3.org/2000/svg"><g filter="url(#filter0_d)"><path d="M71.205 108.757C66.08 92.485 57.612 77.772 57.572 80.131c-.039 2.36 7.212 15.909 11.204 28.587 3.992 12.678 6.41 38.371 6.51 46.182.1 7.81.212 16.515-.477 21.244-.688 4.728-4.926 19.213-4.836 26.291.09 7.078 6.914 11.438 12.397 11.368 5.483-.07 11.767-2.51 11.676-9.588-.09-7.078-3.03-14.12-6.618-23.755-2.604-6.99-7.462-30.391-8.384-35.126-.922-4.735-2.714-20.304-7.84-36.577z" fill="#828A96"/><g filter="url(#filter1_d)"><path d="M118.207 55.157c.223-10.31-4.273-23.517-5.641-36.813L84.358 132.298c.923-3.726 9.337-21.277 19.184-36.715 7.613-11.937 14.358-26.22 14.665-40.425z" fill="#00714D"/><path d="M118.207 55.157c.223-10.31-4.273-23.517-5.641-36.813L84.358 132.298c.923-3.726 9.337-21.277 19.184-36.715 7.613-11.937 14.358-26.22 14.665-40.425z" fill="#008561"/></g><g filter="url(#filter2_d)"><path d="M89.15 47.965c4.811-9.176 15.609-18.597 23.417-29.621L84.359 132.298c.922-3.727 1.322-23.261-.698-41.637-1.563-14.208-1.139-30.055 5.49-42.696z" fill="#008561"/><path d="M89.15 47.965c4.811-9.176 15.609-18.597 23.417-29.621L84.359 132.298c.922-3.727 1.322-23.261-.698-41.637-1.563-14.208-1.139-30.055 5.49-42.696z" fill="#00714D"/></g><path d="M40.462 65.493c.054-5.027.155-14.465 4.764-38.927l33.13 112.504c-1.083-3.68-15.96-17.44-26.265-34.184-12.615-20.497-11.713-31.443-11.629-39.393z" fill="#00714D" filter="url(#filter3_d)"/><path d="M72.373 54.377c-5.594-8.832-18.089-17.38-27.147-27.81l33.13 112.503c-1.083-3.679-1.65-23.361.577-42.087 1.723-14.48 1.147-30.437-6.56-42.606z" fill="#008561"/><g filter="url(#filter4_d)"><path d="M95.532 81.297c2.717-8.758 4.727-13.838 4.925-10.996.197 2.843-2.52 11.602-5.236 20.36-1.318 4.25-3.395 10.445-4.747 16.527-1.434 6.45-2.12 12.772-2.576 16.485-.433 3.531-.82 11.514-1.114 19.575-.305 8.41-.16 30.98-.206 34.594 0 0-7.704-22.638-6.695-28.421.553-3.176 4.427-27.302 8.232-42.264 3.124-12.285 6.192-21.911 7.417-25.86z" fill="url(#paint0_linear)"/><path d="M86.088 174.755l-.002-3.876c-.008-8.388-.02-21.64.199-27.65.293-8.053.68-16.06 1.117-19.617.048-.386.098-.801.15-1.242.457-3.788 1.143-9.487 2.434-15.29 1.124-5.056 2.747-10.191 4.018-14.212.264-.837.513-1.626.74-2.355 1.359-4.382 2.714-8.752 3.705-12.382.496-1.815.898-3.437 1.164-4.778.252-1.266.373-2.243.351-2.887a13.21 13.21 0 0 0-.566 1.18c-.855 1.983-2.03 5.42-3.388 9.8l-.36 1.153c-1.398 4.484-4.201 13.474-7.05 24.682-3.362 13.219-6.779 33.612-7.906 40.34-.147.875-.255 1.518-.319 1.886-.114.656-.11 1.589.003 2.747.112 1.15.327 2.492.616 3.95.576 2.917 1.44 6.275 2.34 9.46a262.813 262.813 0 0 0 2.754 9.091zM100.31 69.97l-.004.003a.015.015 0 0 0 .004-.004z" stroke="#000" stroke-opacity=".2" stroke-linecap="round"/></g><g filter="url(#filter5_d)"><path d="M70.996 105.209C65.87 88.937 59.552 72.2 59.513 74.559c-.04 2.36 5.403 17.972 9.395 30.65 3.992 12.678 6.234 38.372 6.334 46.182.1 7.811.21 16.516-.477 21.244-.688 4.728-4.947 17.665-4.836 26.291.11 8.626 6.913 11.439 12.396 11.369 5.483-.07 11.767-2.511 11.676-9.589-.09-7.078-3.03-14.119-6.618-23.755-2.603-6.989-7.462-30.39-8.384-35.126-.922-4.735-2.878-20.343-8.003-36.616z" fill="url(#paint1_linear)"/><path d="M60.884 78.424c-.132-.462-.25-.892-.354-1.286.63 1.466 1.434 3.5 2.35 5.935 2.221 5.915 5.079 14.158 7.639 22.286 4.106 13.04 6.17 25.635 7.305 32.564.278 1.699.501 3.057.684 3.998.462 2.373 1.908 9.412 3.565 16.732 1.653 7.306 3.526 14.94 4.841 18.473.366.98.724 1.933 1.072 2.86 3.091 8.226 5.435 14.464 5.515 20.727.043 3.361-1.414 5.586-3.526 7-2.138 1.432-4.974 2.047-7.656 2.082-2.665.034-5.62-.635-7.91-2.326-2.269-1.675-3.927-4.386-3.98-8.549-.055-4.247.969-9.585 2.105-14.488.415-1.789.843-3.511 1.236-5.096l.419-1.692c.493-2.008.894-3.727 1.07-4.937.694-4.767.583-13.496.483-21.272v-.05c-.05-3.93-.638-12.325-1.711-21.319-1.072-8.988-2.635-18.62-4.646-25.007-1.194-3.79-2.518-7.848-3.787-11.732-.852-2.611-1.68-5.144-2.423-7.465-.927-2.89-1.727-5.453-2.291-7.438z" stroke="#000" stroke-opacity=".2" stroke-linecap="round"/></g></g><defs><filter id="filter0_d" x="0" y="0" width="148.663" height="240" filterUnits="userSpaceOnUse" color-interpolation-filters="sRGB"><feFlood flood-opacity="0" result="BackgroundImageFix"/><feColorMatrix in="SourceAlpha" values="0 0 0 0 0 0 0 0 0 0 0 0 0 0 0 0 0 0 127 0"/><feOffset dy="6"/><feGaussianBlur stdDeviation="10"/><feColorMatrix values="0 0 0 0 0 0 0 0 0 0 0 0 0 0 0 0 0 0 0.1 0"/><feBlend in2="BackgroundImageFix" result="effect1_dropShadow"/><feBlend in="SourceGraphic" in2="effect1_dropShadow" result="shape"/></filter><filter id="filter1_d" x="74.221" y="14.344" width="64.442" height="138.493" filterUnits="userSpaceOnUse" color-interpolation-filters="sRGB"><feFlood flood-opacity="0" result="BackgroundImageFix"/><feColorMatrix in="SourceAlpha" values="0 0 0 0 0 0 0 0 0 0 0 0 0 0 0 0 0 0 127 0"/><feOffset dy="6"/><feGaussianBlur stdDeviation="5"/><feColorMatrix values="0 0 0 0 0 0 0 0 0 0 0 0 0 0 0 0 0 0 0.1 0"/><feBlend in2="BackgroundImageFix" result="effect1_dropShadow"/><feBlend in="SourceGraphic" in2="effect1_dropShadow" result="shape"/></filter><filter id="filter2_d" x="56.674" y="10" width="65.893" height="138.852" filterUnits="userSpaceOnUse" color-interpolation-filters="sRGB"><feFlood flood-opacity="0" result="BackgroundImageFix"/><feColorMatrix in="SourceAlpha" values="0 0 0 0 0 0 0 0 0 0 0 0 0 0 0 0 0 0 127 0"/><feOffset dy="6"/><feGaussianBlur stdDeviation="5"/><feColorMatrix values="0 0 0 0 0 0 0 0 0 0 0 0 0 0 0 0 0 0 0.1 0"/><feBlend in2="BackgroundImageFix" result="effect1_dropShadow"/><feBlend in="SourceGraphic" in2="effect1_dropShadow" result="shape"/></filter><filter id="filter3_d" x="10" y="22.566" width="78.517" height="140.479" filterUnits="userSpaceOnUse" color-interpolation-filters="sRGB"><feFlood flood-opacity="0" result="BackgroundImageFix"/><feColorMatrix in="SourceAlpha" values="0 0 0 0 0 0 0 0 0 0 0 0 0 0 0 0 0 0 127 0"/><feOffset dy="6"/><feGaussianBlur stdDeviation="5"/><feColorMatrix values="0 0 0 0 0 0 0 0 0 0 0 0 0 0 0 0 0 0 0.1 0"/><feBlend in2="BackgroundImageFix" result="effect1_dropShadow"/><feBlend in="SourceGraphic" in2="effect1_dropShadow" result="shape"/></filter><filter id="filter4_d" x="64.244" y="65.493" width="53.582" height="128.691" filterUnits="userSpaceOnUse" color-interpolation-filters="sRGB"><feFlood flood-opacity="0" result="BackgroundImageFix"/><feColorMatrix in="SourceAlpha" values="0 0 0 0 0 0 0 0 0 0 0 0 0 0 0 0 0 0 127 0"/><feOffset dy="6"/><feGaussianBlur stdDeviation="5"/><feColorMatrix values="0 0 0 0 0 0 0 0 0 0 0 0 0 0 0 0 0 0 0.1 0"/><feBlend in2="BackgroundImageFix" result="effect1_dropShadow"/><feBlend in="SourceGraphic" in2="effect1_dropShadow" result="shape"/></filter><filter id="filter5_d" x="47.254" y="70.335" width="58.853" height="156.159" filterUnits="userSpaceOnUse" color-interpolation-filters="sRGB"><feFlood flood-opacity="0" result="BackgroundImageFix"/><feColorMatrix in="SourceAlpha" values="0 0 0 0 0 0 0 0 0 0 0 0 0 0 0 0 0 0 127 0"/><feOffset dy="6"/><feGaussianBlur stdDeviation="5"/><feColorMatrix values="0 0 0 0 0 0 0 0 0 0 0 0 0 0 0 0 0 0 0.1 0"/><feBlend in2="BackgroundImageFix" result="effect1_dropShadow"/><feBlend in="SourceGraphic" in2="effect1_dropShadow" result="shape"/></filter><linearGradient id="paint0_linear" x1="99.129" y1="77.716" x2="82.611" y2="202.975" gradientUnits="userSpaceOnUse"><stop stop-color="#008561"/><stop offset=".838" stop-color="#A60063"/><stop offset=".839" stop-color="#fff"/></linearGradient><linearGradient id="paint1_linear" x1="59.697" y1="82.671" x2="136.096" y2="157.142" gradientUnits="userSpaceOnUse"><stop stop-color="#008561"/><stop offset=".838" stop-color="#A60063"/><stop offset=".839" stop-color="#fff"/></linearGradient></defs></svg>
